svg/military_worker_negative.svg

<?xml version="1.0" encoding="UTF-8" standalone="no"?>
<!-- Created with Inkscape (http://www.inkscape.org/) -->
<svg id="svg8" xmlns:rdf="http://www.w3.org/1999/02/22-rdf-syntax-ns#" xmlns="http://www.w3.org/2000/svg" xmlns:osb="http://www.openswatchbook.org/uri/2009/osb" height="48" width="48" version="1.1" xmlns:cc="http://creativecommons.org/ns#" viewBox="0 0 12.7 12.7" xmlns:dc="http://purl.org/dc/elements/1.1/">
 <title id="title4753">UIO-icon</title>
 <metadata id="metadata5">
  <rdf:RDF>
   <cc:Work rdf:about="">
    <dc:format>image/svg+xml</dc:format>
    <dc:type rdf:resource="http://purl.org/dc/dcmitype/StillImage"/>
    <dc:title>UIO-icon</dc:title>
    <dc:creator>
     <cc:Agent>
      <dc:title>Joaquín Urbano</dc:title>
     </cc:Agent>
    </dc:creator>
    <dc:rights>
     <cc:Agent>
      <dc:title>GPL</dc:title>
     </cc:Agent>
    </dc:rights>
   </cc:Work>
  </rdf:RDF>
 </metadata>
 <g id="layer1" fill="#333" transform="translate(0,-284.3)">
  <path id="rect5924" d="m0 0v48h48v-48zm23.502 4.9316c3.1359 0.0051507 6.0132 1.7394 7.4824 4.5098 0.2725 0.52995 0.45641 1.0599 0.64844 1.5898 0.2213 0.74598 0.33894 1.5188 0.34961 2.2969h-16.962c0.010032-0.77795 0.12702-1.5508 0.34766-2.2969 0.19736-0.54873 0.40949-1.0827 0.64844-1.5898 1.4699-2.7716 4.3491-4.5061 7.4863-4.5098zm-13.916 0.002c0.10678-0.0055748 0.22 0.010591 0.34375 0.064453v0.90625c0.034099 0.0037795 0.069462 0.0055025 0.10352 0.0078125v-0.0977c0.42143-0.1183 0.59987-0.048756 0.80664 0v0.76172h0.009766v1.2246h-0.009766v1.8906h0.14648v-0.1113c0.049017-0.015118 0.096847-0.041949 0.1543 0v0.95508c-0.045498 0.037799-0.10037 0.015118-0.1543 0v-0.11133h-0.14648v1.8164h0.20312l0.035156 0.060547 0.099609-0.058594c-0.01582-0.057449-0.025408-0.11569 0.044922-0.19922l0.36133-0.30273c0.066682-0.016634 0.13527-0.024928 0.23633 0.070312l0.076 0.252c-0.004487 0.16063-0.066378 0.1942-0.11133 0.26562l-0.24023 0.2168c-0.062528 0.026458-0.12006 0.078871-0.19922 0.007813-0.067186-0.045354-0.10532-0.038556-0.14062-0.023438l0.035156 0.0625-0.33203 0.36328h0.001953v0.30859h0.050781l0.2168 9.2969c-0.00645 0.19918 0.37207 0.11023 0.58789 0.11133 0.11577 0.10099 0.14689 0.32727-0.12109 0.46484l0.5 6.1836 1.8359-0.79492c0.854-0.371 1.706-0.73 2.581-1.046l0.10938-0.029297c1.8171 1.8074 4.275 2.8233 6.8379 2.8262 2.085-0.032267 5.2375-1.3736 6.8027-2.8438 0.81693 0.28997 1.6098 0.61807 2.4043 0.95898l2.6523 1.1504c1.0649 0.46137 2.1621 0.92102 3.373 1.3418 2.5451 0.75129 2.5449 2.867 2.5449 4.0195v6.6621h-35.571v-6.6621c0-1.1525-0.00017116-3.27 2.5449-4.0195 0.1917-0.066 0.3666-0.138 0.5528-0.206l0.0957-7.449-0.002-9.932c0.025821-0.011339 0.052123-0.022677 0.083984 0l0.0019531-0.34375c0.0958-0.015 0.191-0.03 0.2871-0.045v-5.1092h-0.76953c-0.23394-0.019988-0.46743-0.3426-0.48047-0.65625v-0.0039c-0.0073304-0.24326 0.11967-0.4798 0.48047-0.5625h0.76953v-0.046875h-0.25v-0.56641c0.084098-0.020417 0.16685-0.035536 0.25-0.046875v-0.918c0.0993-0.0315 0.1999-0.0589 0.3066-0.0644zm13.924 1.2637c-0.023786 0.00096265-0.1336 0.17782-0.24414 0.39844-0.11084 0.22144-0.21738 0.41043-0.23438 0.42188-0.016981 0.010885-0.193 0.041694-0.39453 0.070312-0.49366 0.070114-0.51953 0.077378-0.51953 0.14062 0 0.030236 0.14543 0.19444 0.32422 0.36328l0.10352 0.097656h0.001953l0.22 0.2089-0.077 0.4434c-0.042526 0.24342-0.066707 0.46852-0.054688 0.5 0.004579 0.011452 0.010188 0.021245 0.023438 0.023438h0.003906c0.043487 0.0043087 0.14553-0.045273 0.41797-0.1875l0.42578-0.2207 0.41406 0.21875c0.31965 0.17171 0.42074 0.21036 0.44727 0.17773 0.011876-0.014891 0.014708-0.061357 0.007813-0.14062-0.006774-0.07861-0.022987-0.1896-0.048828-0.33984v-0.0019531l-0.076172-0.4375 0.248-0.252 0.091797-0.09375c0.26-0.2649 0.329-0.3543 0.299-0.3847-0.03-0.03-0.729-0.1583-0.895-0.164-0.014005-0.00048642-0.11889-0.18812-0.23438-0.41992-0.11548-0.23174-0.22857-0.42188-0.25195-0.42188zm-13.58 0.32812v0.046875h0.10352v-0.046875zm-1.5277 0.4258c-0.0684 0.0048-0.1214 0.0647-0.1211 0.1367-0.0002 0.0751 0.0575 0.1362 0.129 0.1367 0.0654 0.0001 0.1206-0.051 0.1289-0.1191h0.4414v-0.0723h-0.4512c-0.0206-0.0499-0.0674-0.0821-0.1191-0.082-0.0026011-0.000082394-0.0052125-0.000082394-0.0078125 0zm1.5273 0.84766v5.0508c0.034004-0.0006 0.069462 0.001915 0.10352 0.001953v-5.0532zm11.83 1.1641c-0.007784 0-0.010983 0.22251-0.005859 0.49609l0.009766 0.49609 0.85938 0.49414 0.001953 0.001953c0.47168 0.27141 0.86296 0.49564 0.86914 0.49805 0.006199 0.001774 0.4041-0.22113 0.88477-0.49414l0.875-0.49609v-0.5019c1e-8 -0.27533-0.011454-0.49296-0.025391-0.48438-0.68365 0.39409-1.0504 0.60035-1.3066 0.73828-0.16261 0.087284-0.31039 0.16656-0.37305 0.18945-0.053804 0.020032-0.082818 0.020298-0.10156 0.011719-0.042314-0.019276-0.43577-0.24064-0.875-0.49219-0.439-0.2515-0.804-0.457-0.812-0.457zm0.011719 1.4609c-0.013878-0.008013-0.023762 0.2077-0.023438 0.48242v0.5l0.16992 0.095703 0.14648 0.085938 0.55273 0.31641c0.47648 0.27338 0.88248 0.494 0.90234 0.48828 0.02083-0.005367 0.41839-0.228 0.88477-0.49414l0.85156-0.48242v-0.48633c0-0.26668-0.011618-0.48438-0.023438-0.48438-0.01176 0-0.39677 0.2131-0.85547 0.47266-0.45794 0.25947-0.85161 0.47266-0.87305 0.47266-0.02996 0-0.7954-0.4267-1.7324-0.9668zm-10.137 1.5098c-0.10004 0.080504-0.20866 0.14393-0.29688 0.25391 0.00744 0.087311 0.041617 0.12891 0.072266 0.17578 0.085663-0.07748 0.18319-0.10883 0.25781-0.23242 0.00691-0.069543-0.007313-0.13453-0.033203-0.19727zm4.8945 1.75h0.52148v0.003906h12.854v-0.003906h0.51562v0.004h1.2344c0.013784 0.97035 0.036449 2.0045 0.042968 2.8203-0.10894 0.84909 0.11719 2.3342-1.2422 2.1973 0.003392 0.38998 0.009042 0.77994 0.011719 1.1699-3e-8 2.0737-0.79828 4.1215-2.3613 5.0996-1.7383 1.0876-3.3495 2.2264-4.6094 2.2227-1.8397-0.057335-2.8768-0.92259-4.9668-2.2383-1.477-0.931-1.993-3.001-1.993-5.085v-1.2441c-1.2586-0.18576-1.2818-1.5504-1.291-2.123-0.007112-1.0044 0.007566-1.9363 0.041016-2.8203h1.2422zm3.9629 2.2559c0.43897 0.00011339 0.79482 0.35593 0.79492 0.79492-0.00009828 0.43888-0.35594 0.79481-0.79492 0.79492-0.43897-0.00011339-0.79482-0.35597-0.79492-0.79492 0.00009828-0.43892 0.35594-0.79481 0.79492-0.79492zm5.9688 0c0.43897 0.00011339 0.79482 0.35593 0.79492 0.79492-0.00009828 0.43888-0.35594 0.79481-0.79492 0.79492-0.439-0.00011339-0.79483-0.35597-0.79492-0.79492 0.0000945-0.43892 0.35594-0.79481 0.79492-0.79492zm-3.036 3.669c0.016781-0.00011339 0.033773-0.00011339 0.050781 0 0.39814 0 0.72 0.066422 0.7168 0.14844-0.002022 0.080882-0.32239 0.14652-0.7168 0.14648-0.39441 0.00037773-0.7148-0.065602-0.7168-0.14648-0.004021-0.077858 0.28788-0.14466 0.66602-0.14844zm2.9551 2.2617v0.001953c-2e-8 -0.00041575-0.011602 0.00037773-0.011719 0-0.027828 0.058735-1.219 0.27228-2.7012 0.48242-1.4936 0.21165-2.7161 0.34122-2.7422 0.28906-0.02016-0.050986 1.0846-0.25344 2.5215-0.46094 0.064403-0.007559 0.12892-0.019785 0.19336-0.027344 1.5017-0.21203 2.7126-0.33687 2.7285-0.2832 0.000378-0.000529 0.011643-0.001537 0.011719-0.001953zm-10.256 13.029l-1.7266 4.6406h1.0156l0.31836-0.95703h1.6777l0.32227 0.95703h1.0156l-1.7363-4.6406zm3.0625 0v4.6406h0.95703v-1.699h0.761l0.87109 1.6992h1.0254v-0.044922l-1.0039-1.8965c0.27837-0.12537 0.4851-0.29353 0.62109-0.50391 0.13812-0.2125 0.20703-0.47635 0.20703-0.79297 0-0.44624-0.14782-0.79274-0.44531-1.0371-0.2975-0.24437-0.72129-0.36523-1.2695-0.36523zm4.1699 0v4.6406h0.95703v-1.27l-0.096-2.185 1.248 3.455h0.658l1.252-3.459-0.095703 2.1895v1.2695h0.95898v-4.6406h-1.256l-1.185 3.365-1.192-3.366zm5.2285 0 1.5234 2.957v1.6836h0.9707v-1.6836l1.5234-2.957h-1.044l-0.965 2.09-0.961-2.09zm-8.4414 0.77344h0.76758c0.25712 0 0.44706 0.06408 0.57031 0.18945 0.12537 0.12537 0.18945 0.29675 0.18945 0.51562 0 0.21462-0.065518 0.38456-0.19727 0.50781-0.13175 0.12112-0.31847 0.18164-0.55859 0.18164h-0.77148zm-3.5762 0.39844 0.58398 1.7383h-1.161z" fill-rule="evenodd" transform="matrix(.26458 0 0 .26458 0 284.3)"/>
 </g>
</svg>

<svg width="48" height="48" viewBox="0 0 48 48" fill="none" xmlns="http://www.w3.org/2000/svg">
<path fill-rule="evenodd" clip-rule="evenodd" d="M0 0V47.9994H47.9994V0H0ZM23.5017 4.93154C26.6376 4.93669 29.5148 6.67092 30.984 9.44128C31.2565 9.97122 31.4404 10.5012 31.6324 11.0311C31.8537 11.777 31.9714 12.5498 31.982 13.3279H15.0203C15.0303 12.55 15.1473 11.7772 15.3679 11.0311C15.5653 10.4823 15.7774 9.94837 16.0163 9.44128C17.4862 6.66972 20.3654 4.93524 23.5026 4.93154H23.5017ZM9.58588 4.93354C9.69266 4.92796 9.80588 4.94413 9.92963 4.99799V5.90423C9.96372 5.90801 9.99909 5.90973 10.0331 5.91204V5.81434C10.4546 5.69604 10.633 5.76559 10.8398 5.81434V6.57605H10.8495V7.80064H10.8398V9.69121H10.9863V9.57992C11.0353 9.5648 11.0831 9.53797 11.1406 9.57992V10.535C11.0951 10.5728 11.0402 10.5501 10.9863 10.535V10.4237H10.8398V12.24H11.0429L11.078 12.3006L11.1777 12.242C11.1618 12.1845 11.1522 12.1263 11.2226 12.0428L11.5839 11.74C11.6506 11.7234 11.7192 11.7151 11.8202 11.8104L11.8962 12.0624C11.8917 12.223 11.8299 12.2565 11.7849 12.328L11.5447 12.5448C11.4821 12.5712 11.4246 12.6236 11.3455 12.5526C11.2783 12.5072 11.2401 12.514 11.2048 12.5291L11.24 12.5916L10.908 12.9549H10.9099V13.2635H10.9607L11.1775 22.5603C11.171 22.7595 11.5496 22.6705 11.7654 22.6716C11.8811 22.7726 11.9123 22.9989 11.6443 23.1364L12.1443 29.32L13.9802 28.5251C14.8342 28.1541 15.6861 27.7951 16.5611 27.4791L16.6705 27.4498C18.4876 29.2572 20.9455 30.273 23.5083 30.2759C25.5933 30.2437 28.7458 28.9024 30.3109 27.4322C31.1279 27.7221 31.9207 28.0502 32.7152 28.3911L35.3675 29.5415C36.4324 30.0029 37.5295 30.4625 38.7404 30.8833C41.2855 31.6346 41.2853 33.7503 41.2853 34.9028V41.5648H5.71475V34.9028C5.71475 33.7503 5.71457 31.6328 8.25961 30.8833C8.45131 30.8173 8.62621 30.7453 8.81241 30.6773L8.90811 23.2284L8.90611 13.2965C8.93193 13.2852 8.95823 13.2739 8.99009 13.2965L8.99204 12.9528C9.08784 12.9378 9.18304 12.9228 9.27914 12.9078V7.79865H8.50962C8.27568 7.77866 8.04219 7.45606 8.02915 7.14241V7.13851C8.02182 6.89525 8.14882 6.65871 8.50962 6.57602H9.27914V6.52914H9.02914V5.96274C9.11324 5.94232 9.19599 5.9272 9.27914 5.91586V4.99788C9.37844 4.96638 9.47904 4.93898 9.58573 4.93348L9.58588 4.93354ZM23.5097 6.19722C23.4859 6.19818 23.3761 6.37504 23.2656 6.59566C23.1547 6.81709 23.0482 7.00608 23.0312 7.01753C23.0142 7.02842 22.8382 7.05923 22.6367 7.08784C22.143 7.15796 22.1171 7.16522 22.1171 7.22846C22.1171 7.2587 22.2626 7.4229 22.4414 7.59174L22.5449 7.68939H22.5468L22.7668 7.89829L22.6898 8.34168C22.6473 8.5851 22.6231 8.8102 22.6351 8.84168C22.6397 8.85313 22.6453 8.86292 22.6586 8.86511H22.6625C22.706 8.86942 22.808 8.81984 23.0804 8.67762L23.5062 8.45692L23.9203 8.67567C24.2399 8.84737 24.341 8.88602 24.3675 8.85339C24.3794 8.8385 24.3823 8.79204 24.3754 8.71278C24.3686 8.63417 24.3524 8.52318 24.3265 8.37294V8.37099L24.2504 7.93349L24.4984 7.6815L24.5902 7.58775C24.8501 7.32285 24.9191 7.23345 24.8891 7.20305C24.8591 7.17305 24.1602 7.04475 23.9942 7.03905C23.9802 7.03857 23.8753 6.85094 23.7598 6.61914C23.6443 6.3874 23.5312 6.19727 23.5078 6.19727L23.5097 6.19722ZM9.92988 6.52534V6.57221H10.0334V6.52534H9.92988ZM8.40219 6.95113C8.3338 6.95593 8.2808 7.01583 8.2811 7.08783C8.2809 7.16293 8.3386 7.22403 8.41009 7.22453C8.47549 7.22463 8.53069 7.17353 8.53899 7.10543H8.98039V7.03313H8.52919C8.50859 6.98323 8.46179 6.95103 8.41009 6.95113C8.40749 6.95105 8.40488 6.95105 8.40228 6.95113H8.40219ZM9.92948 7.79878V12.8495C9.96348 12.8489 9.99894 12.8514 10.033 12.8515V7.79833L9.92948 7.79878ZM21.7593 8.96287C21.7515 8.96287 21.7483 9.18538 21.7535 9.45895L21.7632 9.95504L22.6226 10.4492L22.6246 10.4511C23.0962 10.7225 23.4875 10.9468 23.4937 10.9492C23.4999 10.9509 23.8978 10.728 24.3784 10.455L25.2534 9.95895V9.45705C25.2534 9.18173 25.242 8.9641 25.228 8.97268C24.5444 9.36677 24.1777 9.57302 23.9215 9.71095C23.7589 9.79823 23.6111 9.87751 23.5484 9.9004C23.4946 9.92043 23.4656 9.9207 23.4469 9.91212C23.4045 9.89284 23.0111 9.67148 22.5719 9.41993C22.1329 9.16844 21.7679 8.96294 21.7599 8.96294L21.7593 8.96287ZM21.771 10.4237C21.7572 10.4157 21.7473 10.6314 21.7476 10.9062V11.4062L21.9175 11.5019L22.064 11.5878L22.6167 11.9042C23.0932 12.1776 23.4992 12.3982 23.5191 12.3925C23.5399 12.3871 23.9374 12.1645 24.4038 11.8983L25.2554 11.4159V10.9296C25.2554 10.6629 25.2437 10.4452 25.2319 10.4452C25.2202 10.4452 24.8352 10.6583 24.3765 10.9179C23.9185 11.1774 23.5249 11.3905 23.5034 11.3905C23.4735 11.3905 22.708 10.9638 21.771 10.4238V10.4237ZM11.6342 11.9335C11.5341 12.014 11.4255 12.0775 11.3373 12.1874C11.3447 12.2747 11.3789 12.3163 11.4096 12.3632C11.4952 12.2857 11.5927 12.2544 11.6674 12.1308C11.6743 12.0613 11.6601 11.9963 11.6342 11.9335ZM16.5286 13.6835H17.0501V13.6874H29.9039V13.6835H30.4195V13.6875H31.6539C31.6677 14.6578 31.6904 15.692 31.6969 16.5078C31.588 17.3569 31.8141 18.8419 30.4547 18.705C30.4581 19.095 30.4637 19.485 30.4664 19.8749C30.4664 21.9486 29.6682 23.9964 28.1052 24.9745C26.3669 26.0621 24.7557 27.2008 23.4958 27.1971C21.6561 27.1398 20.619 26.2746 18.5291 24.9589C17.0521 24.0279 16.5361 21.9579 16.5361 19.8739V18.6298C15.2775 18.4441 15.2543 17.0795 15.2451 16.5069C15.238 15.5025 15.2527 14.5706 15.2861 13.6866H16.5283L16.5286 13.6835ZM20.4915 15.9394C20.9304 15.9395 21.2863 16.2953 21.2864 16.7343C21.2863 17.1732 20.9304 17.5291 20.4915 17.5292C20.0525 17.5291 19.6967 17.1732 19.6966 16.7343C19.6967 16.2954 20.0525 15.9395 20.4915 15.9394ZM26.4602 15.9394C26.8992 15.9395 27.255 16.2953 27.2551 16.7343C27.255 17.1732 26.8992 17.5291 26.4602 17.5292C26.0212 17.5291 25.6654 17.1732 25.6653 16.7343C25.6654 16.2954 26.0212 15.9395 26.4602 15.9394ZM23.4242 19.6083C23.441 19.6082 23.458 19.6082 23.475 19.6083C23.8731 19.6083 24.195 19.6748 24.1918 19.7568C24.1898 19.8377 23.8694 19.9033 23.475 19.9033C23.0806 19.9036 22.7602 19.8377 22.7582 19.7568C22.7542 19.6789 23.0461 19.6121 23.4242 19.6083ZM26.3793 21.87V21.872C26.3793 21.8715 26.3677 21.8723 26.3676 21.872C26.3397 21.9307 25.1486 22.1442 23.6664 22.3544C22.1728 22.566 20.9503 22.6956 20.9242 22.6434C20.9041 22.5924 22.0088 22.39 23.4457 22.1825C23.5101 22.1749 23.5746 22.1627 23.6391 22.1552C25.1407 21.9431 26.3516 21.8183 26.3675 21.872C26.3679 21.8714 26.3792 21.8704 26.3793 21.87ZM16.1234 34.8988L14.3968 39.5394H15.4124L15.7308 38.5824H17.4085L17.7307 39.5394H18.7463L17.01 34.8988H16.1234ZM19.1859 34.8988V39.5394H20.1429V37.8404H20.9039L21.775 39.5396H22.8004V39.4947L21.7965 37.5982C22.0748 37.4728 22.2816 37.3047 22.4175 37.0943C22.5557 36.8818 22.6246 36.6179 22.6246 36.3013C22.6246 35.8551 22.4768 35.5086 22.1793 35.2642C21.8818 35.0199 21.458 34.899 20.9098 34.899L19.1859 34.8988ZM23.3557 34.8988V39.5394H24.3127V38.2694L24.2167 36.0844L25.4647 39.5394H26.1227L27.3747 36.0804L27.279 38.2699V39.5394H28.238V34.8988H26.982L25.797 38.2638L24.605 34.8978L23.3557 34.8988ZM28.5842 34.8988L30.1075 37.8558V39.5394H31.0782V37.8558L32.6016 34.8988H31.5576L30.5926 36.9888L29.6316 34.8988H28.5842ZM20.1429 35.6723H20.9104C21.1676 35.6723 21.3575 35.7364 21.4807 35.8617C21.6061 35.9871 21.6702 36.1585 21.6702 36.3773C21.6702 36.5919 21.6047 36.7619 21.4729 36.8851C21.3412 37.0063 21.1545 37.0668 20.9143 37.0668H20.1429V35.6723ZM16.5667 36.0707L17.1507 37.809H15.9897L16.5667 36.0707Z" fill="#333333"/>
</svg>
